src/svg/search.svg

<svg width="26" height="25" viewBox="0 0 26 25" fill="none" xmlns="http://www.w3.org/2000/svg">
<path fill-rule="evenodd" clip-rule="evenodd" d="M4.27461 11.4584C4.27461 7.21504 7.71455 3.7751 11.9579 3.7751C16.2013 3.7751 19.6413 7.21504 19.6413 11.4584C19.6413 15.7018 16.2013 19.1418 11.9579 19.1418C7.71455 19.1418 4.27461 15.7018 4.27461 11.4584ZM11.9579 2.4751C6.99658 2.4751 2.97461 6.49707 2.97461 11.4584C2.97461 16.4198 6.99658 20.4418 11.9579 20.4418C14.2047 20.4418 16.2588 19.617 17.834 18.2537L20.8733 21.293C21.1272 21.5469 21.5387 21.5469 21.7926 21.293C22.0464 21.0392 22.0464 20.6277 21.7926 20.3738L18.7532 17.3344C20.1165 15.7593 20.9413 13.7052 20.9413 11.4584C20.9413 6.49707 16.9193 2.4751 11.9579 2.4751Z" fill="#101F33"/>
</svg>

<svg xmlns="http://www.w3.org/2000/svg" width="26" height="25" fill="none"><path fill-rule="evenodd" d="M4.275 11.458c0-4.243 3.44-7.683 7.683-7.683s7.683 3.44 7.683 7.683-3.44 7.683-7.683 7.683-7.683-3.44-7.683-7.683zm7.683-8.983c-4.961 0-8.983 4.022-8.983 8.983s4.022 8.983 8.983 8.983a8.95 8.95 0 0 0 5.876-2.188l3.039 3.039a.65.65 0 0 0 .919-.919l-3.039-3.039a8.95 8.95 0 0 0 2.188-5.876c0-4.961-4.022-8.983-8.983-8.983z" fill="#101f33"/></svg>
